packages/crayons-core/src/components/icon/icon-assets/icons/expand.svg

<?xml version="1.0" encoding="UTF-8"?>
<svg width="14px" height="14px" viewBox="0 0 14 14" version="1.1" xmlns="http://www.w3.org/2000/svg" xmlns:xlink="http://www.w3.org/1999/xlink">
    <!-- Generator: Sketch 52.6 (67491) - http://www.bohemiancoding.com/sketch -->
    <title>icon/expand</title>
    <desc>Created with Sketch.</desc>
    <g id="Icons-✅" stroke="none" stroke-width="1" fill="none" fill-rule="evenodd">
        <g id="Icons" transform="translate(-245.000000, -2125.000000)" fill="currentColor">
            <g id="icon/expand" transform="translate(245.000000, 2125.000000)">
                <g id="expand">
                    <path d="M11.3,0 C12.7911688,4.4408921e-16 14,1.20883118 14,2.7 L14,11.3 C14,12.0160845 13.7155365,12.7028401 13.2091883,13.2091883 C12.7028401,13.7155365 12.0160845,14 11.3,14 L2.7,14 C1.98391548,14 1.29715991,13.7155365 0.790811691,13.2091883 C0.284463469,12.7028401 -6.66133815e-16,12.0160845 0,11.3 L0,2.7 C2.22044605e-16,1.20883118 1.20883118,2.22044605e-16 2.7,0 L11.3,0 Z M1.4,11.3 C1.4,12.0179702 1.98202983,12.6 2.7,12.6 L3.41,12.6 L3.41,1.4 L2.7,1.4 C2.35521856,1.4 2.02455848,1.53696389 1.78076118,1.78076118 C1.53696389,2.02455848 1.4,2.35521856 1.4,2.7 L1.4,11.3 Z M12.6,11.3 L12.6,2.7 C12.6,2.35521856 12.4630361,2.02455848 12.2192388,1.78076118 C11.9754415,1.53696389 11.6447814,1.4 11.3,1.4 L4.81,1.4 L4.81,12.6 L11.3,12.6 C12.0179702,12.6 12.6,12.0179702 12.6,11.3 Z M10.1,4.69 C10.2337973,4.81993276 10.3092974,4.99849466 10.3092974,5.185 C10.3092974,5.37150534 10.2337973,5.55006724 10.1,5.68 L8.79,7 L10.1,8.33 C10.2369644,8.46025306 10.3145003,8.64098915 10.3145003,8.83 C10.3145003,9.01901085 10.2369644,9.19974694 10.1,9.33 C9.96913372,9.45822225 9.79321279,9.53002671 9.61,9.53 C9.42412994,9.52849533 9.24563326,9.45709666 9.11,9.33 L7.3,7.51 C7.16303562,7.37974694 7.08549974,7.19901085 7.08549974,7.01 C7.08549974,6.82098915 7.16303562,6.64025306 7.3,6.51 L9.1,4.69 C9.37679776,4.41544444 9.82320224,4.41544444 10.1,4.69 Z" id="Combined-Shape"></path>
                </g>
            </g>
        </g>
    </g>
</svg>

<svg viewBox="0 0 14 14"><path d="M11.3 0A2.7 2.7 0 0 1 14 2.7v8.6a2.7 2.7 0 0 1-2.7 2.7H2.7A2.7 2.7 0 0 1 0 11.3V2.7A2.7 2.7 0 0 1 2.7 0h8.6zM1.4 11.3a1.3 1.3 0 0 0 1.3 1.3h.71V1.4H2.7a1.3 1.3 0 0 0-1.3 1.3v8.6zm11.2 0V2.7a1.3 1.3 0 0 0-1.3-1.3H4.81v11.2h6.49a1.3 1.3 0 0 0 1.3-1.3zm-2.5-6.61a.69.69 0 0 1 0 .99L8.79 7l1.31 1.33a.69.69 0 0 1 0 1 .7.7 0 0 1-.49.2.74.74 0 0 1-.5-.2L7.3 7.51a.69.69 0 0 1 0-1l1.8-1.82a.71.71 0 0 1 1 0z" fill="currentColor" fill-rule="evenodd"/></svg>
